X: 11017
T: Drunken Tinker, The
R: reel
M: 4/4
K: Gmixolydian
F|DG ~G2 DF ~F2|DG ~G2 dGcG|DG{A}GF D3 E|F2 AF CFAF|
DG ~G2 DF ~F2|DG ~G2 dGcG|DG{A}GF DCDE|F2 AF CF [A2F2]||
(3ddd d2 eG d2|(3ddd dG cAFD|(3ddd d2 eGdG|c2 AF CF [A2F2]|
(3ddd d2 eG d2|(3ddd dG cAFD|~d3 e fefd|c2 AF CF [A2F2]||

